src/assets/GoDaddy.svg

<svg width="50" height="45" viewBox="0 0 50 45" fill="none" xmlns="http://www.w3.org/2000/svg">
<path d="M42.6012 2.51093C37.4685 -0.697701 30.7115 0.0667334 24.685 3.85552C18.6775 0.0667334 11.9163 -0.697701 6.78995 2.51093C-1.3193 7.58128 -2.30514 20.6397 4.58983 31.679C9.67234 39.8178 17.6204 44.5867 24.6956 44.4988C31.7707 44.5868 39.7187 39.8179 44.8012 31.6792C51.688 20.6397 50.7106 7.58141 42.6012 2.51093ZM8.31799 29.3481C6.8962 27.093 5.82347 24.6357 5.13618 22.0596C4.52561 19.8235 4.29218 17.5011 4.44549 15.1881C4.75332 11.1083 6.41317 7.93108 9.11759 6.24096C11.8221 4.55085 15.3974 4.44822 19.205 5.96027C19.7764 6.18855 20.3416 6.45255 20.9026 6.7436C18.7867 8.67392 16.9469 10.8869 15.4351 13.3199C11.2485 20.0219 9.97164 27.4799 11.4328 33.4258C10.2678 32.1684 9.22481 30.803 8.31799 29.3481ZM44.257 22.0577C43.5688 24.6334 42.4961 27.0906 41.0752 29.3461C40.1676 30.8031 39.1247 32.1711 37.9604 33.4322C39.2667 28.102 38.3791 21.5717 35.1764 15.4478C35.1253 15.347 35.0535 15.2579 34.9659 15.1866C34.8782 15.1152 34.7765 15.063 34.6674 15.0334C34.5583 15.0037 34.4442 14.9974 34.3325 15.0146C34.2207 15.0319 34.1139 15.0724 34.0188 15.1336L24.0341 21.3749C23.943 21.4317 23.8641 21.506 23.8017 21.5934C23.7394 21.6809 23.6949 21.7797 23.6707 21.8844C23.6466 21.9891 23.6434 22.0975 23.6612 22.2034C23.679 22.3093 23.7175 22.4107 23.7745 22.5017L25.2398 24.8453C25.2965 24.9363 25.3705 25.0153 25.4577 25.0776C25.5449 25.14 25.6435 25.1845 25.748 25.2086C25.8524 25.2327 25.9605 25.236 26.0662 25.2182C26.1719 25.2004 26.273 25.1619 26.3638 25.1049L32.8361 21.0586C33.0455 21.6869 33.2548 22.3152 33.4118 22.9436C34.0223 25.1769 34.2564 27.4963 34.1047 29.8068C33.7969 33.8846 32.137 37.0616 29.4326 38.754C28.0376 39.6073 26.4392 40.0702 24.8043 40.0943H24.5973C22.9623 40.0707 21.3638 39.6078 19.969 38.754C17.2624 37.0616 15.6024 33.8846 15.2948 29.8068C15.1424 27.4938 15.3759 25.1714 15.9855 22.9351C17.3884 17.7612 20.2883 13.1177 24.3209 9.58781C26.0599 8.0605 28.0406 6.83316 30.182 5.956C33.9791 4.44382 37.5606 4.54438 40.2672 6.23669C42.9738 7.92888 44.6316 11.1039 44.9393 15.1838C45.0946 17.4971 44.8641 19.8202 44.257 22.0577Z" fill="#1BDBDB"/>
</svg>

<svg xmlns="http://www.w3.org/2000/svg" width="50" height="45" fill="none"><path fill="#1BDBDB" d="M42.601 2.51C37.47-.697 30.711.068 24.685 3.857 18.678.066 11.916-.698 6.79 2.51c-8.11 5.07-9.095 18.129-2.2 29.168 5.082 8.139 13.03 12.908 20.106 12.82 7.075.088 15.023-4.681 20.105-12.82 6.887-11.04 5.91-24.098-2.2-29.168M8.318 29.349a26.45 26.45 0 0 1-3.182-7.288 20.852 20.852 0 0 1-.69-6.872c.307-4.08 1.967-7.257 4.672-8.947 2.704-1.69 6.28-1.793 10.087-.28.571.228 1.137.492 1.698.783a31.17 31.17 0 0 0-5.468 6.576c-4.187 6.702-5.463 14.16-4.002 20.106a27.06 27.06 0 0 1-3.115-4.078m35.939-7.29a26.515 26.515 0 0 1-3.182 7.288 27.31 27.31 0 0 1-3.115 4.086c1.307-5.33.42-11.86-2.784-17.984a.808.808 0 0 0-1.157-.314l-9.985 6.24a.816.816 0 0 0-.26 1.128l1.466 2.343a.815.815 0 0 0 1.124.26l6.472-4.046c.21.628.419 1.256.576 1.885.61 2.233.844 4.552.693 6.863-.308 4.078-1.968 7.255-4.672 8.947a9.127 9.127 0 0 1-4.629 1.34h-.207a9.117 9.117 0 0 1-4.628-1.34c-2.707-1.692-4.367-4.87-4.674-8.947a20.904 20.904 0 0 1 .69-6.872 27.197 27.197 0 0 1 8.336-13.347 20.87 20.87 0 0 1 5.861-3.632c3.797-1.512 7.379-1.412 10.085.28 2.707 1.693 4.365 4.868 4.672 8.948a20.904 20.904 0 0 1-.682 6.874"/></svg>
